X:1
T:Rimsky-Korsakov harmonic exercises 16-17
T:Rimsky-Korsakov harmonic exercises 16-17
T:Realizations by S. Shchetnikov
T:"Practical Manual of Harmony" (1885)
C:Realizations by S. Shchetnikov
%%score { ( 1 2 ) | ( 3 4 ) }
L:1/8
Q:1/2=120
M:4/1
K:C
V:1 treble nm="Piano" snm="Pno."
V:2 treble 
V:3 bass 
V:4 bass 
V:1
"""^Triad III (in minor keys)""^Examples by Rimsky-Korsakov (harmonization of tetrachord, half cadences):""_a:" A8"" G8"" F8"" E8 |] %1
"" A8"" G8"" F8"" E8 |]"" A8"" G8"" F8"" E8 |][K:Bb][M:2/2][Q:1/2=80]"^Exercise 16.1" B4 d4 | %4
 g4 g4 | f4 e4 | d8 | c4 d4 | e4 c4 | d4 ^f4 | g8 |]"""^Realization 16.1""_g:" B4 d4 |"" g4"" g4 | %13
"" f4"" e4 |"" d8 |"" c4"" d4 |"" e4"" c4 |"" d4"" ^f4 |"" g8 |] %19
[K:C][M:4/1]"""^Triad VII (in minor keys)"[Q:1/2=120]"^Examples by Rimsky-Korsakov (harmonization of tetrachord, half cadences):""_a:" c8"" d8"" d8"" B8 |] %20
"" A8"" B8"" A8"" ^G8 |]"" E8"" G8"" D8"" E8 |]"" A8"" B8"" A8"" ^G8 |] %23
"""^Additional examples:""_a:" A8"" G8"" F8"" E8 |]"" A8"" G8"" F8"" E8 |]"" A8"" B8"" d8"" B8 |] %26
[K:A][M:2/2][Q:1/2=80] z8 | z8 | z8 | z8 | z8 | z8 | z8 | z8 |] %34
"""^Realization 17.1""_f♯:" A4"" G4 |"" F4"" B4 |"" G4"" A4 |"""" B8 |"" c4"" G4 |"" A4"" G4 | %40
"" F4"" ^E4 |"" F8 |] %42
V:2
 E8 E8 D8 C8 |] E8 E8 D8 B,8 |] F8 E8 D8 B,8 |][K:Bb][M:2/2] x8 | x8 | x8 | x8 | x8 | x8 | x8 | %10
 x8 |] G4 B4 | c4 B4 | B4 G4 | ^F8 | G8 | G8 | G4 A4 | B8 |][K:C][M:4/1] A8 B8 A8 ^G8 |] %20
 E8 G8 D8 E8 |] C8 D8 D8 B,8 |] C8 D8 D8 E8 |] E8 D8 D8 B,8 |] E8 D8 D8 B,8 |] E8 E8 D8 E8 |] %26
[K:A][M:2/2] x8 | x8 | x8 | x8 | x8 | x8 | x8 | x8 |] F4 ^E4 | F8 | ^E4 F4 | G4 F4 | ^E4 C4 | %39
 C4 D4 | C8 | C8 |] %42
V:3
 C8 C8 A,8 A,8 |] C8 C8 A,8 ^G,8 |] C8 C8 A,8 ^G,8 |][K:Bb][M:2/2] z8 | z8 | z8 | z8 | z8 | z8 | %9
 z8 | z8 |] D4 G4 | E4 D4 | D4 C4 | A,8 | G,4 B,4 | C8 | B,4 D4 | D8 |][K:C][M:4/1] E8 G8 D8 E8 |] %20
 C8 D8 D8 B,8 |] A,8 B,8 A,8 ^G,8 |] E,8 G,8 A,8 B,8 |] C8 B,8 A,8 ^G,8 |] A,8 B,8 A,8 ^G,8 |] %25
 C8 B,8 A,8 ^G,8 |][K:A][M:2/2]"^Exercise 17.1" F,,4 C,4 | D,4 B,,4 | C,4 F,4 | E,4 D,4 | %30
 C,4 ^E,4 | F,4 B,,4 | C,8 | F,,8 |] C8 | A,4 D4 | C8 | E4 B,4 | G,8 | F,4 G,4 | A,4 G,4 | A,8 |] %42
V:4
 A,,8 C,8 D,8 A,,8 |] A,,8 C,8 D,8 E,8 |] F,8 C,8 D,8 E,8 |][K:Bb][M:2/2] x8 | x8 | x8 | x8 | x8 | %8
 x8 | x8 | x8 |] G,8 | C,4 G,,4 | B,,4 C,4 | D,8 | E,4 D,4 | C,4 E,4 | D,8 | G,,8 |] %19
[K:C][M:4/1] A,8 G,8 F,8 E,8 |] A,8 G,8 F,8 E,8 |] A,8 G,8 F,8 E,8 |] A,,8 G,,8 F,,8 E,,8 |] %23
 A,,8 B,,8 D,8 E,8 |] C,8 B,,8 D,8 E,8 |] A,8 G,8 F,8 E,8 |][K:A][M:2/2] x8 | x8 | x8 | x8 | x8 | %31
 x8 | x8 | x8 |] F,,4 C,4 | D,4 B,,4 | C,4 F,4 | E,4 D,4 | C,4 ^E,4 | F,4 B,,4 | C,8 | F,,8 |] %42

